icons/tag.svg

<svg width="24" height="24" viewBox="0 0 24 24" fill="none" xmlns="http://www.w3.org/2000/svg">
<path fill-rule="evenodd" clip-rule="evenodd" d="M2 3C2 2.44772 2.44772 2 3 2H12.3889C12.6542 2 12.9086 2.10539 13.0961 2.29299L21.1633 10.3623C21.6992 10.9016 22 11.631 22 12.3914C22 13.1517 21.6992 13.8811 21.1633 14.4204L21.1612 14.4225L14.4297 21.1558C14.1625 21.4234 13.8451 21.6357 13.4957 21.7806C13.1463 21.9254 12.7718 22 12.3936 22C12.0154 22 11.6409 21.9254 11.2915 21.7806C10.9422 21.6357 10.6248 21.4234 10.3576 21.1559C10.3575 21.1558 10.3576 21.1559 10.3576 21.1559L2.29321 13.0988C2.10548 12.9112 2 12.6567 2 12.3914V3ZM4 4V11.9769L11.7727 19.7425C11.8542 19.8242 11.951 19.8889 12.0575 19.9331C12.1641 19.9773 12.2783 20 12.3936 20C12.5089 20 12.6231 19.9773 12.7296 19.9331C12.8362 19.8889 12.933 19.8242 13.0145 19.7425L19.7447 13.0106C19.7449 13.0103 19.7452 13.0101 19.7455 13.0098C19.9085 12.8453 20 12.6231 20 12.3914C20 12.1596 19.9085 11.9374 19.7455 11.7729C19.7452 11.7726 19.7449 11.7724 19.7447 11.7721L11.9746 4H4ZM6 7C6 6.44772 6.44772 6 7 6H7.01C7.56228 6 8.01 6.44772 8.01 7C8.01 7.55228 7.56228 8 7.01 8H7C6.44772 8 6 7.55228 6 7Z" fill="black"/>
</svg>

<svg
  width="24"
  height="24"
  viewBox="0 0 24 24"
  xmlns="http://www.w3.org/2000/svg"
>
  <path
    fill-rule="evenodd"
    clip-rule="evenodd"
    d="M2 3a1 1 0 0 1 1-1h9.389a1 1 0 0 1 .707.293l8.067 8.07a2.879 2.879 0 0 1 0 4.057l-.002.002-6.731 6.734a2.878 2.878 0 0 1-4.072 0l-8.065-8.057A1 1 0 0 1 2 12.39V3zm2 1v7.977l7.773 7.765a.877.877 0 0 0 1.242 0l6.73-6.731v-.001a.879.879 0 0 0 0-1.237L11.975 4H4zm2 3a1 1 0 0 1 1-1h.01a1 1 0 0 1 0 2H7a1 1 0 0 1-1-1z"
  />
</svg>
